X:20
T:Jezuz 'lavar deomp pedi
M:6/8
L:1/8
W:Jezuz 'lavar deomp pedi
W:Bepred hag heb ahan
W:Outan e fell din senti
W:Erus oun pa bedan.
W:Savit eta, va ene,
W:Pignit betek tron Doue;
W:Ar bedenn a roy deoch diouaskell krenv
W:D'oh tougen'us d'an oabl, da lein an Nenv.
K:F
A|A2B A2G|(A2F) D2F|E2F (GF)E|D3-Dz A|A2B A2G|(A2F) D2F|E2F (GF)E|D3-Dz D||
A2A F2G|A3 A2D|A2A F2G|A3 Az G|A2B c2d|G3AGA|D3-D2D|E2F G2E|A2D F2E|D3-D2z||
